docs/docs/05-Concepts/03-Network/evpn-vtep.svg

<svg xmlns="http://www.w3.org/2000/svg" xmlns:xlink="http://www.w3.org/1999/xlink" width="521" onclick="(function(svg){var src=window.event.target||window.event.srcElement;while (src!=null&amp;&amp;src.nodeName.toLowerCase()!='a'){src=src.parentNode;}if(src==null){if(svg.wnd!=null&amp;&amp;!svg.wnd.closed){svg.wnd.focus();}else{var r=function(evt){if(evt.data=='ready'&amp;&amp;evt.source==svg.wnd){svg.wnd.postMessage(decodeURIComponent(svg.getAttribute('content')),'*');window.removeEventListener('message',r);}};window.addEventListener('message',r);svg.wnd=window.open('https://app.diagrams.net/?client=1&amp;lightbox=1&amp;edit=_blank');}}})(this);" style="cursor:pointer;max-width:100%;max-height:431px" viewBox="-0.5 -0.5 521 431"><path fill="#fff" stroke="#000" stroke-miterlimit="10" d="M0 0h60v15L50 30H0Z" pointer-events="all"/><path fill="none" stroke="#000" stroke-miterlimit="10" d="M60 0h460v320H0V30" pointer-events="all"/><switch transform="translate(-.5 -.5)"><foreignObject width="100%" height="100%" pointer-events="none" requiredFeatures="http://www.w3.org/TR/SVG11/feature#Extensibility" style="overflow:visible;text-align:left"><div xmlns="http://www.w3.org/1999/xhtml" style="display:flex;align-items:unsafe center;justify-content:unsafe center;width:58px;height:1px;padding-top:15px;margin-left:1px"><div style="box-sizing:border-box;font-size:0;text-align:center"><div style="display:inline-block;font-size:12px;font-family:Helvetica;color:#000;line-height:1.2;pointer-events:all;white-space:normal;word-wrap:normal">leaf 1</div></div></div></foreignObject><text x="30" y="19" font-family="Helvetica" font-size="12" text-anchor="middle">leaf 1</text></switch><path fill="none" stroke="#000" stroke-miterlimit="10" d="M132.5 100v40H425v95M105 100v100" pointer-events="stroke"/><path fill="#fff" stroke="#000" d="M50 50h110v50H50z" pointer-events="all"/><switch transform="translate(-.5 -.5)"><foreignObject width="100%" height="100%" pointer-events="none" requiredFeatures="http://www.w3.org/TR/SVG11/feature#Extensibility" style="overflow:visible;text-align:left"><div xmlns="http://www.w3.org/1999/xhtml" style="display:flex;align-items:unsafe center;justify-content:unsafe center;width:1px;height:1px;padding-top:75px;margin-left:105px"><div style="box-sizing:border-box;font-size:0;text-align:center"><div style="display:inline-block;font-size:12px;font-family:Helvetica;color:#000;line-height:1.2;pointer-events:all;white-space:nowrap">«VLAN aware»<br/><b>Bridge</b></div></div></div></foreignObject><text x="105" y="79" font-family="Helvetica" font-size="12" text-anchor="middle">«VLAN aware»...</text></switch><path fill="#e3c800" stroke="#b09500" stroke-miterlimit="10" d="M390 55h86l14 14v26H390z" pointer-events="all"/><path fill="none" stroke="#b09500" stroke-miterlimit="10" d="M476 55v14h14" pointer-events="all"/><switch transform="translate(-.5 -.5)"><foreignObject width="100%" height="100%" pointer-events="none" requiredFeatures="http://www.w3.org/TR/SVG11/feature#Extensibility" style="overflow:visible;text-align:left"><div xmlns="http://www.w3.org/1999/xhtml" style="display:flex;align-items:unsafe center;justify-content:unsafe flex-start;width:98px;height:1px;padding-top:72px;margin-left:392px"><div style="box-sizing:border-box;font-size:0;text-align:left"><div style="display:inline-block;font-size:12px;font-family:Helvetica;color:#000;line-height:1.2;pointer-events:all;white-space:normal;word-wrap:normal">lo: 10.0.0.41</div></div></div></foreignObject><text x="392" y="76" font-family="Helvetica" font-size="12">lo: 10.0.0.41</text></switch><path fill="#fff" stroke="#000" stroke-miterlimit="10" d="M230 160h80v15l-10 15h-70Z" pointer-events="all"/><path fill="none" stroke="#000" stroke-miterlimit="10" d="M310 160h190v140H230V190" pointer-events="all"/><switch transform="translate(-.5 -.5)"><foreignObject width="100%" height="100%" pointer-events="none" requiredFeatures="http://www.w3.org/TR/SVG11/feature#Extensibility" style="overflow:visible;text-align:left"><div xmlns="http://www.w3.org/1999/xhtml" style="display:flex;align-items:unsafe center;justify-content:unsafe center;width:78px;height:1px;padding-top:175px;margin-left:231px"><div style="box-sizing:border-box;font-size:0;text-align:center"><div style="display:inline-block;font-size:12px;font-family:Helvetica;color:#000;line-height:1.2;pointer-events:all;white-space:normal;word-wrap:normal">vrf 104001</div></div></div></foreignObject><text x="270" y="179" font-family="Helvetica" font-size="12" text-anchor="middle">vrf 104001</text></switch><path fill="none" stroke="#000" stroke-miterlimit="10" d="M280 285v95" pointer-events="stroke"/><path fill="#fff" stroke="#000" d="M370 235h110v50H370z" pointer-events="all"/><switch transform="translate(-.5 -.5)"><foreignObject width="100%" height="100%" pointer-events="none" requiredFeatures="http://www.w3.org/TR/SVG11/feature#Extensibility" style="overflow:visible;text-align:left"><div xmlns="http://www.w3.org/1999/xhtml" style="display:flex;align-items:unsafe center;justify-content:unsafe center;width:1px;height:1px;padding-top:260px;margin-left:425px"><div style="box-sizing:border-box;font-size:0;text-align:center"><div style="display:inline-block;font-size:12px;font-family:Helvetica;color:#000;line-height:1.2;pointer-events:all;white-space:nowrap">«SVI»<br/><b>vlan4001</b></div></div></div></foreignObject><text x="425" y="264" font-family="Helvetica" font-size="12" text-anchor="middle">«SVI»...</text></switch><path fill="#fff" stroke="#000" d="M250 235h60v50h-60z" pointer-events="all"/><switch transform="translate(-.5 -.5)"><foreignObject width="100%" height="100%" pointer-events="none" requiredFeatures="http://www.w3.org/TR/SVG11/feature#Extensibility" style="overflow:visible;text-align:left"><div xmlns="http://www.w3.org/1999/xhtml" style="display:flex;align-items:unsafe center;justify-content:unsafe center;width:1px;height:1px;padding-top:260px;margin-left:280px"><div style="box-sizing:border-box;font-size:0;text-align:center"><div style="display:inline-block;font-size:12px;font-family:Helvetica;color:#000;line-height:1.2;pointer-events:all;white-space:nowrap">swp1</div></div></div></foreignObject><text x="280" y="264" font-family="Helvetica" font-size="12" text-anchor="middle">swp1</text></switch><path fill="#fff" stroke="#000" d="M15 200h180v100H15z" pointer-events="all"/><switch transform="translate(-.5 -.5)"><foreignObject width="100%" height="100%" pointer-events="none" requiredFeatures="http://www.w3.org/TR/SVG11/feature#Extensibility" style="overflow:visible;text-align:left"><div xmlns="http://www.w3.org/1999/xhtml" style="display:flex;align-items:unsafe center;justify-content:unsafe center;width:1px;height:1px;padding-top:250px;margin-left:105px"><div style="box-sizing:border-box;font-size:0;text-align:center"><div style="display:inline-block;font-size:12px;font-family:Helvetica;color:#000;line-height:1.2;pointer-events:all;white-space:nowrap"><font>vni104001<br/><br/>VXLAN-Interface<br/>VTEP-Endpoint: 10.0.0.41<br/></font></div></div></div></foreignObject><text x="105" y="254" font-family="Helvetica" font-size="12" text-anchor="middle">vni104001...</text></switch><path fill="#fff" stroke="#000" d="M225 380h110v50H225z" pointer-events="all"/><switch transform="translate(-.5 -.5)"><foreignObject width="100%" height="100%" pointer-events="none" requiredFeatures="http://www.w3.org/TR/SVG11/feature#Extensibility" style="overflow:visible;text-align:left"><div xmlns="http://www.w3.org/1999/xhtml" style="display:flex;align-items:unsafe center;justify-content:unsafe center;width:1px;height:1px;padding-top:405px;margin-left:280px"><div style="box-sizing:border-box;font-size:0;text-align:center"><div style="display:inline-block;font-size:12px;font-family:Helvetica;color:#000;line-height:1.2;pointer-events:all;white-space:nowrap">Device 1</div></div></div></foreignObject><text x="280" y="409" font-family="Helvetica" font-size="12" text-anchor="middle">Device 1</text></switch><switch><g requiredFeatures="http://www.w3.org/TR/SVG11/feature#Extensibility"/><a xlink:href="https://desk.draw.io/support/solutions/articles/16000042487" target="_blank" transform="translate(0 -5)"><text x="50%" y="100%" font-size="10" text-anchor="middle">Viewer does not support full SVG 1.1</text></a></switch></svg>

<svg xmlns="http://www.w3.org/2000/svg" xmlns:xlink="http://www.w3.org/1999/xlink" version="1.1" width="521px" viewBox="-0.5 -0.5 521 431" content="&lt;mxfile host=&quot;&quot; modified=&quot;2020-06-10T12:03:52.997Z&quot; agent=&quot;5.0 (X11; Linux x86_64) AppleWebKit/537.36 (KHTML, like Gecko) Code/1.45.1 Chrome/78.0.3904.130 Electron/7.2.4 Safari/537.36&quot; etag=&quot;0vYiuRkmzDNG_dlda22-&quot; version=&quot;13.1.3&quot;&gt;&lt;diagram id=&quot;6hGFLwfOUW9BJ-s0fimq&quot; name=&quot;Page-1&quot;&gt;&lt;mxGraphModel dx=&quot;1702&quot; dy=&quot;1131&quot; grid=&quot;1&quot; gridSize=&quot;10&quot; guides=&quot;1&quot; tooltips=&quot;1&quot; connect=&quot;1&quot; arrows=&quot;1&quot; fold=&quot;1&quot; page=&quot;1&quot; pageScale=&quot;1&quot; pageWidth=&quot;827&quot; pageHeight=&quot;1169&quot; math=&quot;0&quot; shadow=&quot;0&quot;&gt;&lt;root&gt;&lt;mxCell id=&quot;0&quot;/&gt;&lt;mxCell id=&quot;1&quot; parent=&quot;0&quot;/&gt;&lt;mxCell id=&quot;3&quot; value=&quot;leaf 1&quot; style=&quot;shape=umlFrame;whiteSpace=wrap;html=1;fontColor=#000000;&quot; parent=&quot;1&quot; vertex=&quot;1&quot;&gt;&lt;mxGeometry x=&quot;120&quot; y=&quot;380&quot; width=&quot;520&quot; height=&quot;320&quot; as=&quot;geometry&quot;/&gt;&lt;/mxCell&gt;&lt;mxCell id=&quot;17&quot; style=&quot;edgeStyle=orthogonalEdgeStyle;rounded=0;orthogonalLoop=1;jettySize=auto;html=1;exitX=0.75;exitY=1;exitDx=0;exitDy=0;entryX=0.5;entryY=0;entryDx=0;entryDy=0;fontColor=#000000;endArrow=none;endFill=0;&quot; parent=&quot;1&quot; source=&quot;7&quot; target=&quot;14&quot; edge=&quot;1&quot;&gt;&lt;mxGeometry relative=&quot;1&quot; as=&quot;geometry&quot;&gt;&lt;Array as=&quot;points&quot;&gt;&lt;mxPoint x=&quot;253&quot; y=&quot;520&quot;/&gt;&lt;mxPoint x=&quot;545&quot; y=&quot;520&quot;/&gt;&lt;/Array&gt;&lt;/mxGeometry&gt;&lt;/mxCell&gt;&lt;mxCell id=&quot;21&quot; value=&quot;&quot; style=&quot;edgeStyle=orthogonalEdgeStyle;rounded=0;orthogonalLoop=1;jettySize=auto;html=1;fontColor=#000000;entryX=0.5;entryY=0;entryDx=0;entryDy=0;endArrow=none;endFill=0;&quot; parent=&quot;1&quot; source=&quot;7&quot; target=&quot;9&quot; edge=&quot;1&quot;&gt;&lt;mxGeometry relative=&quot;1&quot; as=&quot;geometry&quot;&gt;&lt;mxPoint x=&quot;225&quot; y=&quot;560&quot; as=&quot;targetPoint&quot;/&gt;&lt;/mxGeometry&gt;&lt;/mxCell&gt;&lt;mxCell id=&quot;7&quot; value=&quot;«VLAN aware»&amp;lt;br&amp;gt;&amp;lt;b&amp;gt;Bridge&amp;lt;/b&amp;gt;&quot; style=&quot;html=1;fontColor=#000000;&quot; parent=&quot;1&quot; vertex=&quot;1&quot;&gt;&lt;mxGeometry x=&quot;170&quot; y=&quot;430&quot; width=&quot;110&quot; height=&quot;50&quot; as=&quot;geometry&quot;/&gt;&lt;/mxCell&gt;&lt;mxCell id=&quot;8&quot; value=&quot;lo: 10.0.0.41&quot; style=&quot;shape=note;whiteSpace=wrap;html=1;size=14;verticalAlign=middle;align=left;spacingTop=-6;fillColor=#e3c800;strokeColor=#B09500;fontColor=#000000;&quot; parent=&quot;1&quot; vertex=&quot;1&quot;&gt;&lt;mxGeometry x=&quot;510&quot; y=&quot;435&quot; width=&quot;100&quot; height=&quot;40&quot; as=&quot;geometry&quot;/&gt;&lt;/mxCell&gt;&lt;mxCell id=&quot;12&quot; value=&quot;vrf 104001&quot; style=&quot;shape=umlFrame;whiteSpace=wrap;html=1;fontColor=#000000;align=center;width=80;height=30;&quot; parent=&quot;1&quot; vertex=&quot;1&quot;&gt;&lt;mxGeometry x=&quot;350&quot; y=&quot;540&quot; width=&quot;270&quot; height=&quot;140&quot; as=&quot;geometry&quot;/&gt;&lt;/mxCell&gt;&lt;mxCell id=&quot;18&quot; style=&quot;edgeStyle=orthogonalEdgeStyle;rounded=0;orthogonalLoop=1;jettySize=auto;html=1;exitX=0.5;exitY=1;exitDx=0;exitDy=0;entryX=0.5;entryY=0;entryDx=0;entryDy=0;fontColor=#000000;endArrow=none;endFill=0;&quot; parent=&quot;1&quot; source=&quot;13&quot; target=&quot;16&quot; edge=&quot;1&quot;&gt;&lt;mxGeometry relative=&quot;1&quot; as=&quot;geometry&quot;/&gt;&lt;/mxCell&gt;&lt;mxCell id=&quot;14&quot; value=&quot;«SVI»&amp;lt;br&amp;gt;&amp;lt;b&amp;gt;vlan4001&amp;lt;/b&amp;gt;&quot; style=&quot;html=1;fontColor=#000000;&quot; parent=&quot;1&quot; vertex=&quot;1&quot;&gt;&lt;mxGeometry x=&quot;490&quot; y=&quot;615&quot; width=&quot;110&quot; height=&quot;50&quot; as=&quot;geometry&quot;/&gt;&lt;/mxCell&gt;&lt;mxCell id=&quot;13&quot; value=&quot;swp1&quot; style=&quot;html=1;fontColor=#000000;align=center;&quot; parent=&quot;1&quot; vertex=&quot;1&quot;&gt;&lt;mxGeometry x=&quot;370&quot; y=&quot;615&quot; width=&quot;60&quot; height=&quot;50&quot; as=&quot;geometry&quot;/&gt;&lt;/mxCell&gt;&lt;mxCell id=&quot;9&quot; value=&quot;&amp;lt;font&amp;gt;vni104001&amp;lt;br&amp;gt;&amp;lt;br&amp;gt;VXLAN-Interface&amp;lt;br&amp;gt;VTEP-Endpoint: 10.0.0.41&amp;lt;br&amp;gt;&amp;lt;/font&amp;gt;&quot; style=&quot;html=1;fontColor=#000000;align=center;labelPosition=center;verticalLabelPosition=middle;verticalAlign=middle;&quot; parent=&quot;1&quot; vertex=&quot;1&quot;&gt;&lt;mxGeometry x=&quot;135&quot; y=&quot;580&quot; width=&quot;180&quot; height=&quot;100&quot; as=&quot;geometry&quot;/&gt;&lt;/mxCell&gt;&lt;mxCell id=&quot;16&quot; value=&quot;Device 1&quot; style=&quot;html=1;fontColor=#000000;align=center;&quot; parent=&quot;1&quot; vertex=&quot;1&quot;&gt;&lt;mxGeometry x=&quot;345&quot; y=&quot;760&quot; width=&quot;110&quot; height=&quot;50&quot; as=&quot;geometry&quot;/&gt;&lt;/mxCell&gt;&lt;/root&gt;&lt;/mxGraphModel&gt;&lt;/diagram&gt;&lt;/mxfile&gt;" onclick="(function(svg){var src=window.event.target||window.event.srcElement;while (src!=null&amp;&amp;src.nodeName.toLowerCase()!='a'){src=src.parentNode;}if(src==null){if(svg.wnd!=null&amp;&amp;!svg.wnd.closed){svg.wnd.focus();}else{var r=function(evt){if(evt.data=='ready'&amp;&amp;evt.source==svg.wnd){svg.wnd.postMessage(decodeURIComponent(svg.getAttribute('content')),'*');window.removeEventListener('message',r);}};window.addEventListener('message',r);svg.wnd=window.open('https://app.diagrams.net/?client=1&amp;lightbox=1&amp;edit=_blank');}}})(this);" style="cursor:pointer;max-width:100%;max-height:431px;"><defs/><g><path d="M 0 0 L 60 0 L 60 15 L 50 30 L 0 30 Z" fill="#ffffff" stroke="#000000" stroke-miterlimit="10" pointer-events="all"/><path d="M 60 0 L 520 0 L 520 320 L 0 320 L 0 30" fill="none" stroke="#000000" stroke-miterlimit="10" pointer-events="all"/><g transform="translate(-0.5 -0.5)"><switch><foreignObject style="overflow: visible; text-align: left;" pointer-events="none" width="100%" height="100%" requiredFeatures="http://www.w3.org/TR/SVG11/feature#Extensibility"><div xmlns="http://www.w3.org/1999/xhtml" style="display: flex; align-items: unsafe center; justify-content: unsafe center; width: 58px; height: 1px; padding-top: 15px; margin-left: 1px;"><div style="box-sizing: border-box; font-size: 0; text-align: center; "><div style="display: inline-block; font-size: 12px; font-family: Helvetica; color: #000000; line-height: 1.2; pointer-events: all; white-space: normal; word-wrap: normal; ">leaf 1</div></div></div></foreignObject><text x="30" y="19" fill="#000000" font-family="Helvetica" font-size="12px" text-anchor="middle">leaf 1</text></switch></g><path d="M 132.5 100 L 132.5 140 L 425 140 L 425 235" fill="none" stroke="#000000" stroke-miterlimit="10" pointer-events="stroke"/><path d="M 105 100 L 105 200" fill="none" stroke="#000000" stroke-miterlimit="10" pointer-events="stroke"/><rect x="50" y="50" width="110" height="50" fill="#ffffff" stroke="#000000" pointer-events="all"/><g transform="translate(-0.5 -0.5)"><switch><foreignObject style="overflow: visible; text-align: left;" pointer-events="none" width="100%" height="100%" requiredFeatures="http://www.w3.org/TR/SVG11/feature#Extensibility"><div xmlns="http://www.w3.org/1999/xhtml" style="display: flex; align-items: unsafe center; justify-content: unsafe center; width: 1px; height: 1px; padding-top: 75px; margin-left: 105px;"><div style="box-sizing: border-box; font-size: 0; text-align: center; "><div style="display: inline-block; font-size: 12px; font-family: Helvetica; color: #000000; line-height: 1.2; pointer-events: all; white-space: nowrap; ">«VLAN aware»<br /><b>Bridge</b></div></div></div></foreignObject><text x="105" y="79" fill="#000000" font-family="Helvetica" font-size="12px" text-anchor="middle">«VLAN aware»...</text></switch></g><path d="M 390 55 L 476 55 L 490 69 L 490 95 L 390 95 L 390 55 Z" fill="#e3c800" stroke="#b09500" stroke-miterlimit="10" pointer-events="all"/><path d="M 476 55 L 476 69 L 490 69" fill="none" stroke="#b09500" stroke-miterlimit="10" pointer-events="all"/><g transform="translate(-0.5 -0.5)"><switch><foreignObject style="overflow: visible; text-align: left;" pointer-events="none" width="100%" height="100%" requiredFeatures="http://www.w3.org/TR/SVG11/feature#Extensibility"><div xmlns="http://www.w3.org/1999/xhtml" style="display: flex; align-items: unsafe center; justify-content: unsafe flex-start; width: 98px; height: 1px; padding-top: 72px; margin-left: 392px;"><div style="box-sizing: border-box; font-size: 0; text-align: left; "><div style="display: inline-block; font-size: 12px; font-family: Helvetica; color: #000000; line-height: 1.2; pointer-events: all; white-space: normal; word-wrap: normal; ">lo: 10.0.0.41</div></div></div></foreignObject><text x="392" y="76" fill="#000000" font-family="Helvetica" font-size="12px">lo: 10.0.0.41</text></switch></g><path d="M 230 160 L 310 160 L 310 175 L 300 190 L 230 190 Z" fill="#ffffff" stroke="#000000" stroke-miterlimit="10" pointer-events="all"/><path d="M 310 160 L 500 160 L 500 300 L 230 300 L 230 190" fill="none" stroke="#000000" stroke-miterlimit="10" pointer-events="all"/><g transform="translate(-0.5 -0.5)"><switch><foreignObject style="overflow: visible; text-align: left;" pointer-events="none" width="100%" height="100%" requiredFeatures="http://www.w3.org/TR/SVG11/feature#Extensibility"><div xmlns="http://www.w3.org/1999/xhtml" style="display: flex; align-items: unsafe center; justify-content: unsafe center; width: 78px; height: 1px; padding-top: 175px; margin-left: 231px;"><div style="box-sizing: border-box; font-size: 0; text-align: center; "><div style="display: inline-block; font-size: 12px; font-family: Helvetica; color: #000000; line-height: 1.2; pointer-events: all; white-space: normal; word-wrap: normal; ">vrf 104001</div></div></div></foreignObject><text x="270" y="179" fill="#000000" font-family="Helvetica" font-size="12px" text-anchor="middle">vrf 104001</text></switch></g><path d="M 280 285 L 280 380" fill="none" stroke="#000000" stroke-miterlimit="10" pointer-events="stroke"/><rect x="370" y="235" width="110" height="50" fill="#ffffff" stroke="#000000" pointer-events="all"/><g transform="translate(-0.5 -0.5)"><switch><foreignObject style="overflow: visible; text-align: left;" pointer-events="none" width="100%" height="100%" requiredFeatures="http://www.w3.org/TR/SVG11/feature#Extensibility"><div xmlns="http://www.w3.org/1999/xhtml" style="display: flex; align-items: unsafe center; justify-content: unsafe center; width: 1px; height: 1px; padding-top: 260px; margin-left: 425px;"><div style="box-sizing: border-box; font-size: 0; text-align: center; "><div style="display: inline-block; font-size: 12px; font-family: Helvetica; color: #000000; line-height: 1.2; pointer-events: all; white-space: nowrap; ">«SVI»<br /><b>vlan4001</b></div></div></div></foreignObject><text x="425" y="264" fill="#000000" font-family="Helvetica" font-size="12px" text-anchor="middle">«SVI»...</text></switch></g><rect x="250" y="235" width="60" height="50" fill="#ffffff" stroke="#000000" pointer-events="all"/><g transform="translate(-0.5 -0.5)"><switch><foreignObject style="overflow: visible; text-align: left;" pointer-events="none" width="100%" height="100%" requiredFeatures="http://www.w3.org/TR/SVG11/feature#Extensibility"><div xmlns="http://www.w3.org/1999/xhtml" style="display: flex; align-items: unsafe center; justify-content: unsafe center; width: 1px; height: 1px; padding-top: 260px; margin-left: 280px;"><div style="box-sizing: border-box; font-size: 0; text-align: center; "><div style="display: inline-block; font-size: 12px; font-family: Helvetica; color: #000000; line-height: 1.2; pointer-events: all; white-space: nowrap; ">swp1</div></div></div></foreignObject><text x="280" y="264" fill="#000000" font-family="Helvetica" font-size="12px" text-anchor="middle">swp1</text></switch></g><rect x="15" y="200" width="180" height="100" fill="#ffffff" stroke="#000000" pointer-events="all"/><g transform="translate(-0.5 -0.5)"><switch><foreignObject style="overflow: visible; text-align: left;" pointer-events="none" width="100%" height="100%" requiredFeatures="http://www.w3.org/TR/SVG11/feature#Extensibility"><div xmlns="http://www.w3.org/1999/xhtml" style="display: flex; align-items: unsafe center; justify-content: unsafe center; width: 1px; height: 1px; padding-top: 250px; margin-left: 105px;"><div style="box-sizing: border-box; font-size: 0; text-align: center; "><div style="display: inline-block; font-size: 12px; font-family: Helvetica; color: #000000; line-height: 1.2; pointer-events: all; white-space: nowrap; "><font>vni104001<br /><br />VXLAN-Interface<br />VTEP-Endpoint: 10.0.0.41<br /></font></div></div></div></foreignObject><text x="105" y="254" fill="#000000" font-family="Helvetica" font-size="12px" text-anchor="middle">vni104001...</text></switch></g><rect x="225" y="380" width="110" height="50" fill="#ffffff" stroke="#000000" pointer-events="all"/><g transform="translate(-0.5 -0.5)"><switch><foreignObject style="overflow: visible; text-align: left;" pointer-events="none" width="100%" height="100%" requiredFeatures="http://www.w3.org/TR/SVG11/feature#Extensibility"><div xmlns="http://www.w3.org/1999/xhtml" style="display: flex; align-items: unsafe center; justify-content: unsafe center; width: 1px; height: 1px; padding-top: 405px; margin-left: 280px;"><div style="box-sizing: border-box; font-size: 0; text-align: center; "><div style="display: inline-block; font-size: 12px; font-family: Helvetica; color: #000000; line-height: 1.2; pointer-events: all; white-space: nowrap; ">Device 1</div></div></div></foreignObject><text x="280" y="409" fill="#000000" font-family="Helvetica" font-size="12px" text-anchor="middle">Device 1</text></switch></g></g><switch><g requiredFeatures="http://www.w3.org/TR/SVG11/feature#Extensibility"/><a transform="translate(0,-5)" xlink:href="https://desk.draw.io/support/solutions/articles/16000042487" target="_blank"><text text-anchor="middle" font-size="10px" x="50%" y="100%">Viewer does not support full SVG 1.1</text></a></switch></svg>
